icon/ir/watering-soil.svg

<svg viewBox="0 0 24 24" stroke-width="1.5" fill="none" xmlns="http://www.w3.org/2000/svg" height="1em" width="1em">
  <path d="M2 12H4" stroke="currentColor" stroke-linecap="round" stroke-linejoin="round"/>
  <path d="M20 12H22" stroke="currentColor" stroke-linecap="round" stroke-linejoin="round"/>
  <path d="M3 20.01L3.01 19.9989" stroke="currentColor" stroke-linecap="round" stroke-linejoin="round"/>
  <path d="M6 16.01L6.01 15.9989" stroke="currentColor" stroke-linecap="round" stroke-linejoin="round"/>
  <path d="M9 20.01L9.01 19.9989" stroke="currentColor" stroke-linecap="round" stroke-linejoin="round"/>
  <path d="M15 20.01L15.01 19.9989" stroke="currentColor" stroke-linecap="round" stroke-linejoin="round"/>
  <path d="M18 16.01L18.01 15.9989" stroke="currentColor" stroke-linecap="round" stroke-linejoin="round"/>
  <path d="M21 20.01L21.01 19.9989" stroke="currentColor" stroke-linecap="round" stroke-linejoin="round"/>
  <path d="M12.3962 3.39622L15.5 6.49999C17.433 8.43299 17.433 11.567 15.5 13.5C13.567 15.433 10.433 15.433 8.50001 13.5C6.56701 11.567 6.56701 8.43299 8.50001 6.49999L11.6038 3.39621C11.8226 3.17738 12.1774 3.17738 12.3962 3.39622Z" stroke="currentColor" stroke-linecap="round" stroke-linejoin="round"/>
</svg>

<svg width="24" height="24" stroke-width="1.5" fill="none" xmlns="http://www.w3.org/2000/svg"><path d="M2 12h2M20 12h2M3 20.01l.01-.011M6 16.01l.01-.011M9 20.01l.01-.011M15 20.01l.01-.011M18 16.01l.01-.011M21 20.01l.01-.011M12.396 3.396 15.5 6.5a4.95 4.95 0 1 1-7 0l3.104-3.104a.56.56 0 0 1 .792 0Z" stroke="currentColor" stroke-linecap="round" stroke-linejoin="round"/></svg>
